X: 109
%
U:~=!turn!
T: The Cock of the North*
C:From Fraser Knockies Collection
O:Scotland
B:Keith Norman MacDonald : "The Skye collection of the best reels & strathspeys extant" : 1887
Z:Ralph Palmer
R:Strathspey
M:C
L:1/8
K:Gm
d | B<B, B,/B,/B, F>B,D<d | B>B, D/B/d c>AB>G | F>B, B,/B,/B, F>B,D<B | C<C D>F G2-G :| d | B>fd<f F<BD>d | B<fd>f Tg>Bf<d |
B>fd<f F<BD>B | C<C D>F G2 GB | B>fd<f F<BD>d | B<fd>f Tg>Bf<b | f<d {Bc}d>B c>AB<c | C<C D>F G2-G |]


